.local/share/icons/Gruvbox-Plus-Dark/mimetypes/scalable/image-x-win-bitmap.svg

<svg width="256" height="256" viewBox="0 0 256 256" fill="none" xmlns="http://www.w3.org/2000/svg">
<g opacity="0.4" filter="url(#filter0_f)">
<path d="M55.0839 15.5636H155.608L216.009 75.7129L216.011 224.609C216.011 233.52 208.749 240.737 199.838 240.737H55.0838C46.1734 240.737 39 233.564 39 224.654V31.6474C39 22.737 46.1734 15.5636 55.0838 15.5636H55.0839Z" fill="#282828"/>
</g>
<path d="M55.0839 15H155.608L216.009 75.1493L216.011 224.045C216.011 232.956 208.749 240.174 199.838 240.174H55.0838C46.1734 240.174 39 233 39 224.09V31.0838C39 22.1734 46.1734 15 55.0838 15H55.0839Z" fill="#ebdbb2"/>
<path opacity="0.2" d="M199.838 240.174C208.749 240.174 216.011 232.956 216.011 224.046L216.01 186.5H39V224.09C39 233 46.1734 240.174 55.0838 240.174H199.838Z" fill="url(#paint0_linear)"/>
<path fill-rule="evenodd" clip-rule="evenodd" d="M155.609 22.9787H55.0839C50.58 22.9787 46.9787 26.5799 46.9787 31.0838V224.09C46.9787 228.594 50.5799 232.195 55.0838 232.195H199.838C204.371 232.195 208.032 228.521 208.032 224.046V75.1493L155.609 22.9787ZM155.608 15H55.0839C46.1735 15 39 22.1734 39 31.0838V224.09C39 233 46.1734 240.174 55.0838 240.174H199.838C208.749 240.174 216.011 232.956 216.011 224.045L216.009 75.1493L155.608 15Z" fill="url(#paint1_linear)"/>
<path d="M100.917 226.48C105.917 226.48 108.997 223.8 110.717 219.92L106.277 218.24C104.997 220.36 103.437 221.84 100.917 221.84C96.1969 221.84 94.1569 216.64 94.1569 212C94.1569 207.6 95.7569 202.12 100.917 202.12C103.557 202.12 104.957 203.32 106.357 205.44L110.677 203.48C109.477 200.52 106.237 197.52 100.917 197.52C92.2769 197.52 89.1969 205.56 89.1969 212C89.1969 218.92 92.1969 226.48 100.917 226.48ZM126.698 226.48C132.618 226.48 137.618 223.6 137.618 215.32V198H132.818V215.32C132.818 220.44 130.298 221.88 126.698 221.88C123.058 221.88 120.578 220.44 120.578 215.32V198H115.778V215.32C115.778 223.72 120.938 226.48 126.698 226.48ZM144.22 226H149.02V215.04H154.86L160.26 226H165.66L160.06 214.52C164.02 213.32 165.82 209.72 165.82 206.52C165.82 202.12 163.58 198 156.62 198H144.22V226ZM149.02 210.48V202.56H156.7C159.98 202.56 160.86 204.64 160.86 206.52C160.86 208.56 159.82 210.48 156.7 210.48H149.02Z" fill="url(#paint2_linear)"/>
<path d="M87.1269 52.0005C86.4572 51.9908 85.7922 52.113 85.1707 52.3599C84.5491 52.6068 83.9833 52.9735 83.5062 53.4388C83.0292 53.904 82.6503 54.4585 82.3917 55.0699C82.1332 55.6813 82 56.3375 82 57.0003C82 57.6631 82.1332 58.3193 82.3917 58.9308C82.6503 59.5422 83.0292 60.0967 83.5062 60.5619C83.9833 61.0271 84.5491 61.3939 85.1707 61.6408C85.7922 61.8877 86.4572 62.0098 87.1269 62.0001C88.4541 61.9809 89.7204 61.4457 90.652 60.5101C91.5837 59.5746 92.106 58.3138 92.106 57.0003C92.106 55.6868 91.5837 54.4261 90.652 53.4905C89.7204 52.555 88.4541 52.0198 87.1269 52.0005V52.0005ZM97.2318 72.0008L97.2816 172L126.798 135.848L173.071 132.001L97.2318 72.0008Z" fill="url(#paint3_linear)"/>
<path opacity="0.25" d="M155.608 17V61.2306C155.608 70.141 162.867 77.1605 171.777 77.1605L216.009 77.1493V75.1493L155.608 17Z" fill="#282828"/>
<path d="M155.608 15V59.2306C155.608 68.141 162.867 75.1605 171.777 75.1605L216.009 75.1493L155.608 15Z" fill="url(#paint4_linear)"/>
<defs>
<filter id="filter0_f" x="23.8778" y="0.441412" width="207.255" height="255.418" filterUnits="userSpaceOnUse" color-interpolation-filters="sRGB">
<feFlood flood-opacity="0" result="BackgroundImageFix"/>
<feBlend mode="normal" in="SourceGraphic" in2="BackgroundImageFix" result="shape"/>
<feGaussianBlur stdDeviation="7.5611" result="effect1_foregroundBlur"/>
</filter>
<linearGradient id="paint0_linear" x1="127.506" y1="241.367" x2="127.506" y2="186.5" gradientUnits="userSpaceOnUse">
<stop offset="0.0217391" stop-color="#d65d0e"/>
<stop offset="1" stop-color="#fe8019"/>
</linearGradient>
<linearGradient id="paint1_linear" x1="127.506" y1="245.178" x2="127.506" y2="15" gradientUnits="userSpaceOnUse">
<stop offset="0.0217391" stop-color="#d65d0e"/>
<stop offset="1" stop-color="#fe8019"/>
</linearGradient>
<linearGradient id="paint2_linear" x1="127.5" y1="241.178" x2="127.5" y2="187" gradientUnits="userSpaceOnUse">
<stop offset="0.0217391" stop-color="#d65d0e"/>
<stop offset="1" stop-color="#fe8019"/>
</linearGradient>
<linearGradient id="paint3_linear" x1="127.536" y1="174.667" x2="127.536" y2="52" gradientUnits="userSpaceOnUse">
<stop offset="0.0217391" stop-color="#d65d0e"/>
<stop offset="1" stop-color="#fe8019"/>
</linearGradient>
<linearGradient id="paint4_linear" x1="185.808" y1="76.4974" x2="185.808" y2="15" gradientUnits="userSpaceOnUse">
<stop offset="0.0217391" stop-color="#d65d0e"/>
<stop offset="1" stop-color="#fe8019"/>
</linearGradient>
</defs>
</svg>

<svg width="256" height="256" fill="none" version="1.1" viewBox="0 0 256 256" xmlns="http://www.w3.org/2000/svg">
  <path d="m55.08 15h100.5l60.4 60.15 2e-3 148.9c0 8.911-7.262 16.13-16.17 16.13h-144.8c-8.91 0-16.08-7.174-16.08-16.08v-193c0-8.91 7.173-16.08 16.08-16.08h1e-4z" fill="#ebdbb2"/>
  <path d="m199.8 240.2c8.911 0 16.17-7.218 16.17-16.13l-1e-3 -37.55h-177v37.59c0 8.91 7.173 16.08 16.08 16.08h144.8z" fill="url(#paint0_linear)" opacity=".2"/>
  <path d="m155.6 22.98h-100.5c-4.504 0-8.105 3.601-8.105 8.105v193c0 4.504 3.601 8.105 8.105 8.105h144.8c4.533 0 8.194-3.674 8.194-8.149v-148.9l-52.42-52.17zm-1e-3 -7.979h-100.5c-8.91 0-16.08 7.173-16.08 16.08v193c0 8.91 7.173 16.08 16.08 16.08h144.8c8.911 0 16.17-7.218 16.17-16.13l-2e-3 -148.9-60.4-60.15z" clip-rule="evenodd" fill="url(#paint1_linear)" fill-rule="evenodd"/>
  <path d="m100.9 226.5c5 0 8.08-2.68 9.8-6.56l-4.44-1.68c-1.28 2.12-2.84 3.6-5.36 3.6-4.72 0-6.76-5.2-6.76-9.84 0-4.4 1.6-9.88 6.76-9.88 2.64 0 4.04 1.2 5.44 3.32l4.32-1.96c-1.2-2.96-4.44-5.96-9.76-5.96-8.64 0-11.72 8.04-11.72 14.48 0 6.92 3 14.48 11.72 14.48zm25.78 0c5.92 0 10.92-2.88 10.92-11.16v-17.32h-4.8v17.32c0 5.12-2.52 6.56-6.12 6.56-3.64 0-6.12-1.44-6.12-6.56v-17.32h-4.8v17.32c0 8.4 5.16 11.16 10.92 11.16zm17.52-0.48h4.8v-10.96h5.84l5.4 10.96h5.4l-5.6-11.48c3.96-1.2 5.76-4.8 5.76-8 0-4.4-2.24-8.52-9.2-8.52h-12.4v28zm4.8-15.52v-7.92h7.68c3.28 0 4.16 2.08 4.16 3.96 0 2.04-1.04 3.96-4.16 3.96h-7.68z" fill="url(#paint2_linear)"/>
  <path d="m87.13 52c-0.6697-0.0097-1.335 0.1125-1.956 0.3594-0.6216 0.2469-1.187 0.6136-1.664 1.079-0.477 0.4652-0.8559 1.02-1.114 1.631-0.2585 0.6114-0.3917 1.268-0.3917 1.93s0.1332 1.319 0.3917 1.93c0.2586 0.6114 0.6375 1.166 1.114 1.631 0.4771 0.4652 1.043 0.832 1.664 1.079 0.6215 0.2469 1.286 0.369 1.956 0.3593 1.327-0.0192 2.594-0.5544 3.525-1.49 0.9317-0.9355 1.454-2.196 1.454-3.51s-0.5223-2.574-1.454-3.51c-0.9316-0.9355-2.198-1.471-3.525-1.49zm10.1 20 0.0498 100 29.52-36.15 46.27-3.847-75.84-60z" fill="url(#paint3_linear)"/>
  <path d="m155.6 17v44.23c0 8.91 7.259 15.93 16.17 15.93l44.23-0.0112v-2l-60.4-58.15z" fill="#282828" opacity=".25"/>
  <path d="m155.6 15v44.23c0 8.91 7.259 15.93 16.17 15.93l44.23-0.0112-60.4-60.15z" fill="url(#paint4_linear)"/>
  <defs>
    <linearGradient id="paint0_linear" x1="127.5" x2="127.5" y1="241.4" y2="186.5" gradientUnits="userSpaceOnUse">
      <stop stop-color="#d65d0e" offset=".02174"/>
      <stop stop-color="#fe8019" offset="1"/>
    </linearGradient>
    <linearGradient id="paint1_linear" x1="127.5" x2="127.5" y1="245.2" y2="15" gradientUnits="userSpaceOnUse">
      <stop stop-color="#d65d0e" offset=".02174"/>
      <stop stop-color="#fe8019" offset="1"/>
    </linearGradient>
    <linearGradient id="paint2_linear" x1="127.5" x2="127.5" y1="241.2" y2="187" gradientUnits="userSpaceOnUse">
      <stop stop-color="#d65d0e" offset=".02174"/>
      <stop stop-color="#fe8019" offset="1"/>
    </linearGradient>
    <linearGradient id="paint3_linear" x1="127.5" x2="127.5" y1="174.7" y2="52" gradientUnits="userSpaceOnUse">
      <stop stop-color="#d65d0e" offset=".02174"/>
      <stop stop-color="#fe8019" offset="1"/>
    </linearGradient>
    <linearGradient id="paint4_linear" x1="185.8" x2="185.8" y1="76.5" y2="15" gradientUnits="userSpaceOnUse">
      <stop stop-color="#d65d0e" offset=".02174"/>
      <stop stop-color="#fe8019" offset="1"/>
    </linearGradient>
  </defs>
</svg>
